X: 121
T: The Butlers Reel
R: reel
M: C
L: 1/8
Z: 2012 John Chambers <jc:trillian.mit.edu>
B: J. Anderson "Budget of Strathspeys, Reels and Country Dances" (Early 1800s) p.12 #1
F: http://imslp.org/wiki/Anderson%27s_Budget_of_Strathspeys,_Reels_and_Country_Dances_(Various)
K: G
|:\
G2(BG) BddB | c2(ec) eggB | G2(BG) Bcdg | edcB A2G2 :|
g2(bg) agfd | (ed).e.f (gd).B.G | g2(bg) agfd | (ed).e.f g2(ga) |
(ba).g.f (gf).e.d | edef gd BG  | (cB).c.d (ef).g.e | dgBg AGFA |]

%%sep 2 1 500
%%sep 1 1 500

